X: 3
T: Woodstock Park
R: jig
M: 6/8
L: 1/8
Z: 2011 John Chambers <jc:trillian.mit.edu>
B: Andrew Shaw "Mr Kynaston's Famous Dance" p.3
N: Longways for as many as will
P: Play AAB
K: D
%
"A"[|] A |\
"D"dfd "A"ege | "Bm"fac d2c | "G"BAG "E"FED | "A"(CE)z zzA |\
"G"DFB "A"EGc | "D"FAd "G"GBe | "A"cAd d2c | "D"d3- d2 :|
"B"[|] f |\
"D"f3 "A"edc | "Bm"dcB "F#"^A2c | "Bm"B2f edc/B/ | "F#"^A3 F2d/e/ |\
"Bm"fdB "F#"ec^A | "Bm"fdB "F#"ec^A | "Bm"d>cB "F#"FB^A | "Bm"B3- B3"A"c |
"D"d3 "A"AGF | "Em"EFD "A"CEA, | "D"D>EF F>ED | "A"A3- A2A/G/ |\
"D"FAd "Em"GBe | "F#m(D/f#)"Acf "G"Bdg | "A"cAd d2c | "D"d3- d2 |]
%
P: B Bars 3-6
"Bm"B2f d2B | "F#"^A3 F2d/e/ | "D"fdA "A"ecA | "D"fdA "A"ecA
